X: 553
T: Polska efter Seb Anders
S: efter Seb Anders
O: Dalarna, Rättvik?
R: Polska
Z: Håkan Lidén, 2008-09-28
Q: 3/8=98
M: 9/8
L: 1/4
K: Dm
A, D E F G/ | A A/B/ A/F/ D E/ | F F E/F/ G/F/G/ | A3/ A3/- A B/| 
c c B G B/ | B A/B/ A/F/ D E/ | F F E/F/ A F/ | (4:6:4E//F//E//^C// D3 :| 
|: f3/ f3/- f a/ | e3/ e3 | d d ^c/d/ f d/ | d =c/d/ c/A/ F A/ | B B A/B/ d B/ | 
B A/B/ A/F/ D E/ |1 F F E/F/ G/F/G/ | A3/ A3 :|2 F F E/F/ A F/ | (4:6:4E//F//E//^C// D3 |]
(:musicend:)

(:music:)
